build/img/soc-yt.svg

<svg width="32" height="25" viewBox="0 0 32 25" fill="none" xmlns="http://www.w3.org/2000/svg">
<path d="M20.9168 10.7403L13.8508 6.85015C13.4448 6.62391 12.9637 6.63648 12.5639 6.87529C12.164 7.1141 11.9266 7.53517 11.9266 8.00022V15.7113C11.9266 16.1764 12.164 16.5912 12.5576 16.83C12.7638 16.9557 12.9949 17.0185 13.2261 17.0185C13.4385 17.0185 13.6447 16.9683 13.8384 16.8614L20.9043 13.0404C21.3229 12.8142 21.5853 12.3743 21.5853 11.8966C21.5916 11.4127 21.3354 10.9728 20.9168 10.7403ZM13.8009 14.7372V8.97433L19.0801 11.8841L13.8009 14.7372Z" fill="#878183"/>
<path d="M31.7501 5.75035V5.73778C31.7251 5.48012 31.4502 3.17369 30.3382 2.00477C29.0512 0.622169 27.5955 0.458771 26.8957 0.377072C26.8395 0.370788 26.7833 0.364503 26.7396 0.358219L26.6771 0.351934C22.4475 0.0439918 16.0625 0 16 0H15.9875C15.925 0 9.54002 0.0439918 5.27294 0.351934L5.21671 0.358219C5.17298 0.364503 5.123 0.370788 5.06677 0.377072C4.37329 0.458771 2.93011 0.622169 1.63686 2.05504C0.574776 3.2114 0.268645 5.46755 0.237407 5.71893L0.23116 5.75035C0.224912 5.85719 0 8.42756 0 11.0042V13.4112C0 15.9879 0.224912 18.552 0.237407 18.6588V18.6776C0.262397 18.9353 0.531043 21.1915 1.64311 22.3667C2.85513 23.699 4.38579 23.875 5.20422 23.9692C5.33542 23.9818 5.44787 23.9944 5.52284 24.0132L5.59781 24.0258C8.04061 24.2583 15.6939 24.3777 16.0187 24.3777H16.0437C16.1062 24.3777 22.4912 24.3337 26.7208 24.0258L26.777 24.0195C26.8333 24.0132 26.8895 24.0069 26.9582 24.0006C27.6455 23.9252 29.0824 23.7744 30.3569 22.3667C31.419 21.2103 31.7251 18.9542 31.7563 18.7028L31.7626 18.6714C31.7751 18.5645 32 16.0004 32 13.4238V11.0168C31.9875 8.42756 31.7626 5.85719 31.7501 5.75035ZM30.1132 13.4112C30.1132 15.793 29.9071 18.2503 29.8883 18.4765C29.8071 19.0987 29.4885 20.5253 28.9699 21.0909C28.1702 21.9707 27.3581 22.0587 26.7583 22.1216C26.6833 22.1279 26.6209 22.1341 26.5584 22.1467C22.4662 22.4421 16.3249 22.4924 16.0375 22.4924C15.7189 22.4861 8.17805 22.3729 5.81023 22.153C5.69153 22.1341 5.56033 22.1153 5.41663 22.1027C4.71691 22.021 3.75478 21.9142 3.01757 21.0972L2.99883 21.0783C2.49278 20.5441 2.17415 19.2118 2.09918 18.4954C2.08668 18.3257 1.87427 15.8433 1.87427 13.4238V11.0168C1.87427 8.63495 2.08044 6.18398 2.09918 5.95146C2.19289 5.22245 2.52401 3.87756 3.01757 3.33709C3.836 2.42583 4.70441 2.32528 5.27919 2.26243C5.33542 2.25615 5.3854 2.24986 5.42913 2.24358C9.57751 1.94192 15.7688 1.89793 15.9875 1.89793C16.2124 1.89793 22.3975 1.94192 26.5084 2.24358C26.5584 2.24986 26.6146 2.25615 26.6708 2.26243C27.2581 2.33156 28.1515 2.43212 28.9637 3.30567L28.9699 3.31195C29.476 3.84614 29.7946 5.2036 29.8696 5.93889C29.8821 6.10228 30.0945 8.59096 30.0945 11.0105V13.4112H30.1132Z" fill="#878183"/>
</svg>

<svg width="32" height="25" fill="none" xmlns="http://www.w3.org/2000/svg"><path d="M20.917 10.74L13.85 6.85a1.275 1.275 0 00-1.287.025A1.3 1.3 0 0011.926 8v7.711c0 .465.237.88.63 1.119a1.282 1.282 0 001.281.031l7.066-3.82c.419-.227.681-.667.681-1.144a1.297 1.297 0 00-.668-1.157zM13.8 14.737V8.974l5.28 2.91-5.28 2.853z" fill="#878183"/><path d="M31.75 5.75v-.012c-.025-.258-.3-2.564-1.412-3.733C29.051.622 27.596.459 26.896.377a5.48 5.48 0 01-.156-.019l-.063-.006C22.447.044 16.063 0 16 0h-.012C15.925 0 9.54.044 5.273.352l-.056.006a4.863 4.863 0 01-.15.02c-.694.08-2.137.244-3.43 1.677C.575 3.211.269 5.468.237 5.719l-.006.031C.225 5.857 0 8.428 0 11.004v2.407c0 2.577.225 5.141.237 5.248v.019c.025.257.294 2.514 1.406 3.689 1.212 1.332 2.743 1.508 3.561 1.602.131.013.244.025.319.044l.075.013c2.443.232 10.096.352 10.42.352h.026c.062 0 6.447-.044 10.677-.352l.056-.006.181-.02c.688-.075 2.124-.226 3.399-1.633 1.062-1.157 1.368-3.413 1.4-3.664l.006-.032c.012-.107.237-2.67.237-5.247v-2.407a68.982 68.982 0 00-.25-5.267zm-1.637 7.661c0 2.382-.206 4.84-.225 5.066-.08.622-.4 2.048-.918 2.614-.8.88-1.612.968-2.212 1.03a1.731 1.731 0 00-.2.026c-4.092.295-10.233.345-10.52.345-.32-.006-7.86-.12-10.228-.339a5.563 5.563 0 00-.393-.05c-.7-.082-1.662-.189-2.4-1.006L3 21.078c-.506-.534-.825-1.866-.9-2.583-.012-.17-.225-2.652-.225-5.071v-2.407c0-2.382.206-4.833.225-5.066.094-.729.425-2.073.919-2.614.818-.911 1.686-1.012 2.261-1.075l.15-.018c4.149-.302 10.34-.346 10.558-.346.225 0 6.41.044 10.521.346l.163.018c.587.07 1.48.17 2.293 1.044l.006.006c.506.534.825 1.892.9 2.627.012.163.224 2.652.224 5.072v2.4h.02z" fill="#878183"/></svg>
